src/symbolic/apps/preferences-desktop-sharing-symbolic.svg

<svg xmlns="http://www.w3.org/2000/svg" width="16" height="16"><path d="M12 0c-1.66 0-3 1.34-3 3 0 .23.04.44.09.66l-3.22 2A2.92 2.92 0 0 0 4 5C2.34 5 1 6.34 1 8s1.34 3 3 3c.71 0 1.36-.25 1.88-.66l3.21 2c-.05.22-.09.43-.09.66 0 1.66 1.34 3 3 3s3-1.34 3-3-1.34-3-3-3c-.71 0-1.36.24-1.87.66l-3.22-2C6.96 8.44 7 8.23 7 8c0-.23-.04-.44-.09-.66l3.22-2A2.996 2.996 0 0 0 15 3c0-1.66-1.34-3-3-3z" fill="#444"/></svg>

<svg xmlns="http://www.w3.org/2000/svg" width="16" height="16" version="1.1">
 <path style="fill:#444444" d="M 12,0 C 10.34,0 9,1.34 9,3 9,3.23 9.04,3.44 9.09,3.66 L 5.87,5.66 C 5.36,5.24 4.71,5 4,5 2.34,5 1,6.34 1,8 1,9.66 2.34,11 4,11 4.71,11 5.36,10.75 5.88,10.34 L 9.09,12.34 C 9.04,12.56 9,12.77 9,13 9,14.66 10.34,16 12,16 13.66,16 15,14.66 15,13 15,11.34 13.66,10 12,10 11.29,10 10.64,10.24 10.13,10.66 L 6.91,8.66 C 6.96,8.44 7,8.23 7,8 7,7.77 6.96,7.56 6.91,7.34 L 10.13,5.34 C 10.64,5.75 11.29,6 12,6 13.66,6 15,4.66 15,3 15,1.34 13.66,0 12,0 Z"/>
</svg>
